X:1035
T:Baksjbottningen (Eskil Andersson) - Schottis
C:Alexander Martensson, \AA{}ngermanland
M:2/4
L:1/16
K:C
G2|:c2c2 cBce|A2A2 A4|\
G2f2 A2B2|cBce g2G2|\
c2c2 cBce|A2A2 A4|\
G2f2 A2B2|1 c2e2 c4:|2 c2e2 cEGc||\
|:eEeE dEcE|BFAF fFAF|\
BGAG gGBG|eGdG cEGc|\
eEeE dEcE|BFAF fFAF|\
BGAG gGBG|1 c2e2 c4:|2 c2e2 c2GF||\
|:E3E E2E2|F3F FGFD|1 B,DFG B2d2|\
e2c2 cBc2:|2 B,DFG Bdfd|c2e2 c4||
